X:1
T:Zu Meinem Herrn, 11.10.11.10
T:Zu Meinem Herrn, 11.10.11.10
T:Johann Gottfried Schict (1753-1823)
T:Public Domain Courtesy of the Cyber Hymnal™
C:Johann Gottfried Schict (1753-1823)
Z:Public Domain
Z:Courtesy of the Cyber Hymnal™
%%score ( 1 2 ) ( 3 4 )
L:1/8
Q:1/4=115
M:none
K:Ab
V:1 treble 
V:2 treble 
V:3 bass 
V:4 bass 
V:1
 [CE]4 [DF]2 [DG]2 | [EA]2 G2 [CA]2 [FA]2 [FB]2 [EB]2 | [Ec]2 !fermata![CA]2 | [Ec]4 [EB]2 [FA]2 | %4
 [B,G]2 [B,E]2 [EA]2 [EG]2 [CF]2 [=DF]2 x | E4 | [FB]4 [EB]2 [FA]2 | %7
 [EG]2 G2 [Ac]2 [GB]2 [FA]2 [=EG]2 | [FA]2 [DF]4 | [EB]2 [FB]2 [Ec]2 | %10
 [Dd]2 [Fc]2 [FB]2 [EA]2 [DF]2 [B,G]2 | [CA]8 |] %12
V:2
 x8 | x2 (ED) x8 | x4 | x8 | x13 | E4 | x8 | x2 G2 x8 | x6 | x6 | x12 | x8 |] %12
V:3
 [A,,A,]4 [D,A,]2 [B,,B,]2 | [C,E,]2 [E,B,]2 (A,2 z) [D,B,]2 [E,G,]2 x | A,2 !fermata![A,,A,]2 | %3
 A,4 [G,B,]2 (C=D) | (E2 z) [C,A,]2 [B,,B,]2 [A,,C]2 (B,A,) x2 | [E,G,]4 | %6
 [B,,D]4 [C,B,]2 [D,B,]2 | [E,B,]2 [E,E]2 [A,,E]2 [B,,D]2 [C,C]2 [C,C]2 | [F,C]2 [F,A,]4 | %9
 [E,_G,]2 [D,F,]2 [C,=A,]2 | [B,,B,]2 [=A,,C]2 [B,,D]2 [C,E]2 [D,=A,]2 E,2 | [A,,A,]8 |] %12
V:4
 x8 | x4 F,3 (C2 E,) x2 | A,2 x2 | A,4 F,2 x2 | E,3 (G,2 =D,) x5 B,,2 | x4 | x8 | x12 | x6 | x6 | %10
 x10 E,2 | x8 |] %12

